!! J.S. Bach "Courante" from Suite No. 3, for violoncello.
!! From 'Bach Sonatas', Augener's Edition, 1919; p.17
!! This file has been error-checked using the double-entry method.
!! NOTE: The repeat at bar 40 has been expanded in this encoding,
!!       however, the repeat at the end has not been expanded.
!! Percy Such (editor) gives the metronome marking as quarter-note equals 168.
**kern
*M3/4
8c
=1
8c
8G
8E
8C
8GG
8EE
=2
8CC
{8c
8d
8c
8B
8c}
=3
8d
8B
8G
8D
8BB
8GG
=4
8FF
{8d
8c
8B
8A
8G}
=5
8c
8B
8A
8G
8F
8E
=6
{8F
8D
8GG}
8A
8G
8F
=7
{8E
8D
8C
8BB}
{8C
8GG}
=8
4.CC
{16C
16D
8E
8F#}
=9
{8BB
8D
8G}
8A
8B
8c
=10
8G#
8d
8E
{8d
8c
8B}
=11
{8c
8B
8A}
8G#
8A
8E
=12
{8C
8D
8E}
8C
8AA
8GG
=13
{8FF#
8AA
8D}
8E
8F#
8G
=14
{8A
8F#
8D}
8c
8B
8A
=15
{8B
8A
8G}
8F#
8G
8D
=16
{8BB
8C
8D}
8BB
8GG
8FF
=17
8EE
{8G
8A
8G
8F#
8G}
=18
8C
8D
8C
8BB
8AA
8GG
=19
8FF#
{8A
8B
8A
8G
8A}
=20
8C
8E
8D
8C
8BB
8AA
=21
8GG
{8B
8c
8B}
8E
8B
=22
8AA
{8c
8d
8c}
8F#
8c
=23
8BB
{8d
8e
8d
8c
8B}
=24
{8A
8G
8F}
8E
8F
8D
=25
8CC
{8F
8E
8D
8E
8C}
=26
{8BB
8C}
8D
8E
8F#
8G
=27
{8AA
8D}
8E
8F#
8G
8A
=28
{8GG
8E}
8F#
8G
8A
8B
=29
8DD
8c
8A
8c
8F#
8c
=30
8D
8c
8A
8c
8F#
8c
=31
8D
8B-
8G
8B-
8F#
8B-
=32
8D
8B-
8G
8B-
8F#
8B-
=33
8E-
8A
8G
8A
8F#
8A
=34
8E-
8A
8G
8A
8F#
8A
=35
{8c
8A}
8F#
8D
8AA
8FF#
=36
4.DD
8D
8F#
8A
=37
{8B
8c
8d}
8A
8B
8G
=38
{8A
8B
8c}
8G
8A
8F#
=39
8G
8D
8E
8C
8AA
8F#
=40
2GG
8r
8c
=41
8c
8G
8E
8C
8GG
8EE
=42
8CC
{8c
8d
8c
8B
8c}
=43
8d
8B
8G
8D
8BB
8GG
=44
8FF
{8d
8c
8B
8A
8G}
=45
8c
8B
8A
8G
8F
8E
=46
{8F
8D
8GG}
8A
8G
8F
=47
{8E
8D
8C
8BB}
{8C
8GG}
=48
4.CC
{16C
16D
8E
8F#}
=49
{8BB
8D
8G}
8A
8B
8c
=50
8G#
8d
8E
{8d
8c
8B}
=51
{8c
8B
8A}
8G#
8A
8E
=52
{8C
8D
8E}
8C
8AA
8GG
=53
{8FF#
8AA
8D}
8E
8F#
8G
=54
{8A
8F#
8D}
8c
8B
8A
=55
{8B
8A
8G}
8F#
8G
8D
=56
{8BB
8C
8D}
8BB
8GG
8FF
=57
8EE
{8G
8A
8G
8F#
8G}
=58
8C
8D
8C
8BB
8AA
8GG
=59
8FF#
{8A
8B
8A
8G
8A}
=60
8C
8E
8D
8C
8BB
8AA
=61
8GG
{8B
8c
8B}
8E
8B
=62
8AA
{8c
8d
8c}
8F#
8c
=63
8BB
{8d
8e
8d
8c
8B}
=64
{8A
8G
8F}
8E
8F
8D
=65
8CC
{8F
8E
8D
8E
8C}
=66
{8BB
8C}
8D
8E
8F#
8G
=67
{8AA
8D}
8E
8F#
8G
8A
=68
{8GG
8E}
8F#
8G
8A
8B
=69
8DD
8c
8A
8c
8F#
8c
=70
8D
8c
8A
8c
8F#
8c
=71
8D
8B-
8G
8B-
8F#
8B-
=72
8D
8B-
8G
8B-
8F#
8B-
=73
8E-
8A
8G
8A
8F#
8A
=74
8E-
8A
8G
8A
8F#
8A
=75
{8c
8A}
8F#
8D
8AA
8FF#
=76
4.DD
8D
8F#
8A
=77
{8B
8c
8d}
8A
8B
8G
=78
{8A
8B
8c}
8G
8A
8F#
=79
8G
8D
8E
8C
8AA
8F#
=80
2GG
8r
8d
=81
8d
8B
8G
8D
8BB
8D
=82
{8F
8D
8BB}
8AA
8BB
8GG
=83
8CC
{8F
8E
8D
8E
8G}
=84
{8c
8d
8e}
8B
8c
8A
=85
{8F
8G
8A}
8E
8F
8D
=86
8BB
{8A
8B
8c
8d
8B}
=87
{8G#
8F#
8G#}
8A
8B
8G#
=88
8E
8B
8G#
8E
8e
8D
=89
8C
8A
8E
8C
8BB
8G
=90
8AA
8F
8C
8AA
8GG
8E
=91
8FF
8D
8AA
8FF
8EE
8C
=92
8DD
{8c
8B
8c
8d
8G#}
=93
8CC
{8e
8d
8c
8B
8A}
=94
8E
{8d
8c
8B
8A
8G#}
=95
8A
{8E
8D
8C
8D
8E}
=96
4.AA
{16A
16B
16c
16B
16c
16A}
=97
8G
8E
8C
8E
8G
8B-
=98
8EE
{8d
8c
8B-
8A
8G}
=99
8A
8F
8E
8F
8C
8F
=100
8AA
8C
8FF
{8A
8G
8A}
=101
{8B-
8A
8G}
8F
8E
8G
=102
{8C#
8E
8GG}
8BB-
8AA
8GG
=103
{8FF
8EE
8FF}
8GG
8AA
8FF
=104
{8DD
8FF
8AA}
8D
8E
8F
=105
8GG#
{8F
8E
8D
8C
8BB}
=106
{8AA
8C
8F}
8A
8F
8D
=107
8BB
{8A
8G
8F
8E
8D}
=108
{8C
8E
8A}
8c
8A
8F
=109
8D
{8c
8B
8A
8G
8F}
=110
{8E
8G
8c}
8e
8c
8A
=111
8F
{8e
8d
8c
8B
8A}
=112
{8B
8d}
8B
8G
8D
8BB
=113
8GG
8F
8D
8F
8BB
8F
=114
8GG
8F
8D
8F
8BB
8F
=115
8GG
8E-
8C
8E-
8BB
8E-
=116
8GG
8E-
8C
8E-
8BB
8E-
=117
8AA-
8D
8C
8D
8BB
8D
=118
8AA-
8D
8C
8D
8BB
8D
=119
{8F
8GG}
8BB
8D
8F
8B
=120
4.d
8c
8B
8A
=121
{8G
8F
8E}
8G
8F
8D
=122
{8E
8D
8C}
8E
8D
8BB
=123
8C
8G
8A
8F
8D
8B
=124
2CC 2GG 2E 2c
8r
==
*-
